svgs/sharp-light/user-headset.svg

<svg xmlns="http://www.w3.org/2000/svg" viewBox="0 0 448 512"><!--! Font Awesome Pro 6.6.0 by @fontawesome - https://fontawesome.com License - https://fontawesome.com/license (Commercial License) Copyright 2024 Fonticons, Inc. --><path d="M224 32C135.6 32 64 103.6 64 192l0 32-32 0 0-32C32 86 118 0 224 0S416 86 416 192l0 112 0 16-16 0-128 0-48 0-48 0 0-64 96 0 0 32 112 0 0-96c0-88.4-71.6-160-160-160zM144 291.9c-29.3-23.5-48-59.5-48-99.9c0-70.7 57.3-128 128-128s128 57.3 128 128c0 23.3-6.2 45.2-17.1 64L304 256l0-10.9c10.1-15.2 16-33.5 16-53.1c0-53-43-96-96-96s-96 43-96 96c0 19.6 5.9 37.9 16 53.1l0 46.8zM9.6 480L48 352l96 0 32 0 48 0 48 0 128 0 38.4 128 9.6 32-33.4 0L33.4 512 0 512l9.6-32zm62.2-96L43 480l362 0-28.8-96L71.8 384z"/></svg>

<svg xmlns="http://www.w3.org/2000/svg" viewBox="0 0 448 512"><!--! Font Awesome Pro 6.4.2 by @fontawesome - https://fontawesome.com License - https://fontawesome.com/license (Commercial License) Copyright 2023 Fonticons, Inc. --><path d="M224 32C135.6 32 64 103.6 64 192v32H32V192C32 86 118 0 224 0S416 86 416 192V304v16H400 272 224 176V256h96v32H384V192c0-88.4-71.6-160-160-160zM144 291.9c-29.3-23.5-48-59.5-48-99.9c0-70.7 57.3-128 128-128s128 57.3 128 128c0 23.3-6.2 45.2-17.1 64H304V245.1c10.1-15.2 16-33.5 16-53.1c0-53-43-96-96-96s-96 43-96 96c0 19.6 5.9 37.9 16 53.1v46.8zM9.6 480L48 352h96 32 48 48H400l38.4 128 9.6 32H414.6 33.4 0l9.6-32zm62.2-96L43 480H405l-28.8-96H71.8z"/></svg>
